carriers/postPt.svg

<svg width="128" height="64" viewBox="0 0 128 64" fill="none" xmlns="http://www.w3.org/2000/svg">
<rect width="128" height="64" rx="6" fill="white"/>
<path d="M57.4035 51.4484C54.2687 52.4225 51.011 52.9449 47.7287 52.9999C36.8087 52.9999 31.0522 46.2799 31.0522 36.1999C31.0522 26.1199 36.8087 19.3999 47.7287 19.3999C51.011 19.4549 54.2687 19.9773 57.4035 20.9514L56.0892 27.6714C53.1492 26.7672 51.1875 26.3768 48.8355 26.3768C43.2421 26.3768 40.8605 30.5175 40.8605 36.1999C40.8605 41.8823 43.2421 46.023 48.8405 46.023C51.1925 46.023 53.1541 45.6326 56.0941 44.7284L57.4035 51.4484Z" fill="#DF0024"/>
<path d="M71.5501 27.0242V43.3647C71.5501 45.5586 73.0325 46.2059 74.5148 46.2059C75.458 46.2093 76.3994 46.1233 77.3264 45.9489V52.4713C75.095 52.7864 72.845 52.9515 70.5915 52.9654C63.7925 52.9654 62.2212 49.3485 62.2212 44.2442V15.8325L71.5748 11V20.0473H77.3362V27.0242H71.5501Z" fill="#DF0024"/>
<path d="M91.1717 27.0242V43.3647C91.1717 45.5586 92.6541 46.2059 94.1364 46.2059C95.0796 46.2093 96.021 46.1233 96.948 45.9489V52.4713C94.7166 52.7864 92.4666 52.9515 90.2131 52.9654C83.4141 52.9654 81.8428 49.3485 81.8428 44.2442V15.8325L91.1717 11V20.0473H96.9282V27.0242H91.1717Z" fill="#DF0024"/>
</svg>

<svg xmlns="http://www.w3.org/2000/svg" width="128" height="64" fill="none"><rect width="128" height="64" fill="#fff" rx="6"/><path fill="#DF0024" d="M57.404 51.448A34.555 34.555 0 0 1 47.728 53c-10.92 0-16.677-6.72-16.677-16.8 0-10.08 5.757-16.8 16.677-16.8 3.282.055 6.54.577 9.675 1.551l-1.315 6.72c-2.94-.904-4.901-1.294-7.253-1.294-5.594 0-7.975 4.14-7.975 9.823 0 5.682 2.381 9.823 7.98 9.823 2.352 0 4.313-.39 7.253-1.295l1.31 6.72ZM71.55 27.024v16.34c0 2.195 1.483 2.842 2.965 2.842.943.003 1.884-.083 2.811-.257v6.522a50.39 50.39 0 0 1-6.734.494c-6.8 0-8.37-3.617-8.37-8.72V15.832L71.574 11v9.047h5.761v6.977H71.55ZM91.172 27.024v16.34c0 2.195 1.482 2.842 2.964 2.842.944.003 1.885-.083 2.812-.257v6.522a50.39 50.39 0 0 1-6.735.494c-6.799 0-8.37-3.617-8.37-8.72V15.832L91.172 11v9.047h5.756v6.977h-5.756Z"/></svg>
